**kern
*staff1
!!pagebreak:original
*I"P1
=1-
*clefG2
*k[]
*M2/4
4a/
8dd\L
8dd\J
=2
8cc/L
8b/
8a/
8e/J
=3
8a\L
8a\
8dd\
8dd\J
=4
8cc/L
8b/
8a/
8e/J
=5
8a\L
8a\
8dd\
8dd\J
=6
8cc/L
8b/
8a/
8e/J
=7
4a/
8dd\L
8dd\J
=8
8cc\L
8b\J
4a/
*-
